dist/img/icon/customer-backdrop.svg

<svg width="547" height="323" viewBox="0 0 547 323" fill="none" xmlns="http://www.w3.org/2000/svg">
<mask id="mask0_9_410" style="mask-type:luminance" maskUnits="userSpaceOnUse" x="0" y="0" width="547" height="323">
<path d="M547 0.303345H0V323H547V0.303345Z" fill="white"/>
</mask>
<g mask="url(#mask0_9_410)">
<g opacity="0.2">
<mask id="mask1_9_410" style="mask-type:luminance" maskUnits="userSpaceOnUse" x="-938" y="-738" width="1542" height="1062">
<path d="M603.669 -737.796H-937.458V323.017H603.669V-737.796Z" fill="white"/>
</mask>
<g mask="url(#mask1_9_410)">
<path d="M415.555 266.85C415.555 268.02 415.208 269.163 414.558 270.136C413.908 271.108 412.985 271.866 411.904 272.314C410.823 272.762 409.634 272.879 408.487 272.651C407.339 272.423 406.286 271.859 405.458 271.032C404.631 270.205 404.068 269.151 403.84 268.004C403.612 266.856 403.729 265.667 404.176 264.587C404.624 263.506 405.382 262.582 406.355 261.932C407.327 261.282 408.471 260.936 409.64 260.936C410.417 260.935 411.186 261.088 411.904 261.386C412.622 261.683 413.274 262.118 413.823 262.668C414.372 263.217 414.808 263.869 415.105 264.586C415.402 265.304 415.555 266.073 415.555 266.85Z" fill="#989898"/>
<path d="M108.023 71.1625C108.023 72.3323 107.676 73.4758 107.026 74.4484C106.377 75.421 105.453 76.1791 104.372 76.6268C103.291 77.0744 102.102 77.1916 100.955 76.9634C99.8076 76.7352 98.7538 76.1718 97.9266 75.3447C97.0995 74.5175 96.5362 73.4637 96.308 72.3164C96.0798 71.1691 96.1969 69.9799 96.6445 68.8992C97.0922 67.8185 97.8503 66.8948 98.8229 66.2449C99.7955 65.595 100.939 65.2482 102.109 65.2482C102.886 65.2481 103.655 65.4009 104.372 65.6981C105.09 65.9953 105.742 66.431 106.291 66.9802C106.84 67.5294 107.276 68.1815 107.573 68.8991C107.87 69.6167 108.023 70.3858 108.023 71.1625Z" fill="#989898"/>
<path d="M128.723 152.107C128.723 153.277 128.376 154.42 127.726 155.393C127.076 156.366 126.153 157.124 125.072 157.572C123.991 158.019 122.802 158.137 121.655 157.909C120.507 157.68 119.454 157.117 118.626 156.29C117.799 155.463 117.236 154.409 117.007 153.262C116.779 152.114 116.896 150.925 117.344 149.844C117.791 148.764 118.549 147.84 119.522 147.19C120.495 146.54 121.638 146.193 122.808 146.193C123.585 146.193 124.354 146.346 125.071 146.643C125.789 146.94 126.441 147.376 126.99 147.925C127.539 148.474 127.975 149.126 128.272 149.844C128.57 150.561 128.723 151.33 128.723 152.107Z" fill="#989898"/>
<path d="M337.806 64.5792C336.519 64.5792 335.262 64.1978 334.192 63.4831C333.123 62.7685 332.289 61.7526 331.797 60.5642C331.305 59.3757 331.176 58.068 331.427 56.8064C331.678 55.5448 332.297 54.3858 333.207 53.4762C334.116 52.5666 335.275 51.9472 336.537 51.6963C337.799 51.4453 339.106 51.5741 340.295 52.0664C341.483 52.5586 342.499 53.3923 343.214 54.4618C343.928 55.5314 344.31 56.7889 344.31 58.0753C344.307 59.7995 343.621 61.4524 342.402 62.6716C341.183 63.8908 339.53 64.5768 337.806 64.5792ZM337.806 52.7512C336.753 52.7514 335.724 53.0636 334.849 53.6485C333.974 54.2335 333.292 55.0648 332.889 56.0374C332.486 57.01 332.381 58.0801 332.587 59.1125C332.792 60.1449 333.299 61.0932 334.043 61.8374C334.788 62.5817 335.736 63.0885 336.769 63.2938C337.801 63.4991 338.871 63.3937 339.844 62.9908C340.816 62.5879 341.647 61.9057 342.232 61.0305C342.817 60.1552 343.129 59.1262 343.129 58.0735C343.128 56.6623 342.566 55.3093 341.568 54.3115C340.57 53.3137 339.217 52.7525 337.806 52.7512Z" fill="#989898"/>
<path d="M414.668 20.8928C413.381 20.8928 412.124 20.5113 411.054 19.7966C409.985 19.0819 409.151 18.0662 408.659 16.8778C408.167 15.6893 408.038 14.3815 408.289 13.1199C408.54 11.8582 409.159 10.6994 410.069 9.7898C410.978 8.8802 412.137 8.2607 413.399 8.00974C414.661 7.75879 415.968 7.88757 417.157 8.37984C418.345 8.87211 419.361 9.70573 420.076 10.7753C420.79 11.8449 421.172 13.1024 421.172 14.3888C421.169 16.113 420.483 17.7659 419.264 18.9851C418.045 20.2043 416.392 20.8903 414.668 20.8928ZM414.668 9.06467C413.615 9.06467 412.586 9.37678 411.711 9.96162C410.835 10.5465 410.153 11.3777 409.75 12.3503C409.348 13.3228 409.242 14.393 409.448 15.4255C409.653 16.4579 410.16 17.4063 410.904 18.1506C411.648 18.895 412.597 19.4018 413.629 19.6072C414.662 19.8126 415.732 19.7072 416.705 19.3044C417.677 18.9015 418.508 18.2193 419.093 17.344C419.678 16.4688 419.99 15.4398 419.99 14.3871C419.988 12.976 419.427 11.6231 418.429 10.6253C417.432 9.62746 416.079 9.06621 414.668 9.06467Z" fill="#989898"/>
<path d="M44.1519 140.948C42.8655 140.948 41.6081 140.567 40.5385 139.852C39.469 139.137 38.6353 138.122 38.1431 136.933C37.6508 135.745 37.5219 134.437 37.7729 133.175C38.0238 131.914 38.6433 130.755 39.5529 129.845C40.4625 128.936 41.6214 128.316 42.883 128.065C44.1446 127.814 45.4524 127.943 46.6409 128.435C47.8293 128.928 48.8451 129.761 49.5597 130.831C50.2744 131.901 50.6559 133.158 50.6559 134.444C50.6537 136.169 49.9677 137.822 48.7485 139.041C47.5292 140.26 45.8762 140.946 44.1519 140.948ZM44.1519 129.12C43.0992 129.12 42.0702 129.432 41.195 130.017C40.3197 130.602 39.6375 131.433 39.2346 132.406C38.8318 133.378 38.7264 134.449 38.9317 135.481C39.1371 136.513 39.644 137.462 40.3884 138.206C41.1327 138.951 42.0811 139.457 43.1135 139.663C44.146 139.868 45.2162 139.763 46.1887 139.36C47.1613 138.957 47.9925 138.275 48.5773 137.4C49.1621 136.524 49.4743 135.495 49.4743 134.443C49.4728 133.032 48.9115 131.679 47.9137 130.681C46.9159 129.683 45.563 129.122 44.1519 129.12Z" fill="#989898"/>
<path d="M264.155 206.517C262.869 206.517 261.611 206.135 260.542 205.421C259.472 204.706 258.639 203.69 258.146 202.502C257.654 201.313 257.525 200.005 257.776 198.744C258.027 197.482 258.647 196.323 259.556 195.414C260.466 194.504 261.625 193.885 262.886 193.634C264.148 193.383 265.456 193.511 266.644 194.004C267.833 194.496 268.848 195.33 269.563 196.399C270.278 197.469 270.659 198.726 270.659 200.013C270.657 201.737 269.971 203.39 268.752 204.609C267.532 205.828 265.879 206.514 264.155 206.517ZM264.155 194.689C263.102 194.689 262.073 195.001 261.198 195.586C260.323 196.17 259.641 197.002 259.238 197.974C258.835 198.947 258.73 200.017 258.935 201.049C259.14 202.082 259.647 203.03 260.392 203.775C261.136 204.519 262.084 205.026 263.117 205.231C264.149 205.436 265.219 205.331 266.192 204.928C267.164 204.525 267.996 203.843 268.58 202.968C269.165 202.093 269.478 201.064 269.478 200.011C269.476 198.6 268.915 197.247 267.917 196.249C266.919 195.251 265.566 194.69 264.155 194.689Z" fill="#989898"/>
<path d="M414.964 153.321C413.677 153.321 412.42 152.939 411.35 152.225C410.281 151.51 409.447 150.494 408.955 149.306C408.463 148.117 408.334 146.81 408.585 145.548C408.836 144.286 409.455 143.128 410.365 142.218C411.274 141.308 412.433 140.689 413.695 140.438C414.957 140.187 416.264 140.316 417.453 140.808C418.641 141.3 419.657 142.134 420.371 143.204C421.086 144.273 421.468 145.531 421.468 146.817C421.465 148.541 420.779 150.194 419.56 151.413C418.341 152.632 416.688 153.318 414.964 153.321ZM414.964 141.493C413.911 141.493 412.882 141.805 412.007 142.39C411.131 142.975 410.449 143.806 410.046 144.778C409.644 145.751 409.538 146.821 409.743 147.854C409.949 148.886 410.456 149.834 411.2 150.579C411.944 151.323 412.893 151.83 413.925 152.035C414.958 152.241 416.028 152.135 417 151.733C417.973 151.33 418.804 150.648 419.389 149.772C419.974 148.897 420.286 147.868 420.286 146.815C420.284 145.404 419.723 144.051 418.725 143.053C417.728 142.056 416.375 141.494 414.964 141.493Z" fill="#989898"/>
<path d="M414.964 184.121C413.677 184.121 412.42 183.74 411.35 183.025C410.281 182.31 409.447 181.295 408.955 180.106C408.463 178.918 408.334 177.61 408.585 176.348C408.836 175.087 409.455 173.928 410.365 173.018C411.274 172.109 412.433 171.489 413.695 171.238C414.957 170.987 416.264 171.116 417.453 171.608C418.641 172.101 419.657 172.934 420.371 174.004C421.086 175.073 421.468 176.331 421.468 177.617C421.465 179.341 420.779 180.994 419.56 182.213C418.341 183.433 416.688 184.119 414.964 184.121ZM414.964 172.293C413.911 172.293 412.882 172.605 412.007 173.19C411.131 173.775 410.449 174.606 410.046 175.579C409.644 176.551 409.538 177.621 409.743 178.654C409.949 179.686 410.456 180.635 411.2 181.379C411.944 182.123 412.893 182.63 413.925 182.836C414.958 183.041 416.028 182.936 417 182.533C417.973 182.13 418.804 181.448 419.389 180.572C419.974 179.697 420.286 178.668 420.286 177.616C420.284 176.204 419.723 174.851 418.725 173.854C417.728 172.856 416.375 172.295 414.964 172.293Z" fill="#989898"/>
<path d="M142.507 302.338H-152.289L142.017 301.156L177.505 265.668H409.048V266.851H177.991L142.507 302.338Z" fill="#989898"/>
<path d="M-277.033 235.869H-528.329V234.686H-277.522L-211.581 168.744H67.4603L116.547 217.831H409.048V219.013H116.058L66.9716 169.927H-211.091L-277.033 235.869Z" fill="#989898"/>
<path d="M409.051 177.616H244.984L173.424 106.055H-51.6566V104.873H173.914L245.475 176.433H409.051V177.616Z" fill="#989898"/>
<path d="M-255.711 302.666H-394.673V301.484H-256.201L-172.549 217.832H116.302V219.014H-172.059L-255.711 302.666Z" fill="#989898"/>
<path d="M177.75 265.667H-6.70908V266.85H177.75V265.667Z" fill="#989898"/>
<path d="M409.049 148.045H276.921L200.63 71.7535H102.11V70.5712H201.119L277.411 146.863H409.049V148.045Z" fill="#989898"/>
<path d="M409.049 98.3665H298.211L214.823 14.9782H39.6649L-9.56997 64.2124H-169.938V63.0316H-10.0595L39.1746 13.7966H215.312L298.7 97.1849H409.048L409.049 98.3665Z" fill="#989898"/>
<path d="M-310.448 178.798H-428.974V177.616H-310.938L-267.174 133.851H38.2375V135.034H-266.684L-310.448 178.798Z" fill="#989898"/>
<path d="M409.049 13.7959H291.359V14.9791H409.049V13.7959Z" fill="#989898"/>
<path d="M258.239 200.602H170.467L122.39 152.525L123.223 151.691L170.954 199.422H258.239V200.602Z" fill="#989898"/>
<path d="M409.049 57.4816H343.72V58.6648H409.049V57.4816Z" fill="#989898"/>
<path d="M48.2445 317.1C48.2445 318.27 47.8976 319.414 47.2477 320.386C46.5978 321.359 45.6741 322.117 44.5934 322.565C43.5127 323.012 42.3235 323.129 41.1762 322.901C40.0289 322.673 38.9751 322.11 38.1479 321.283C37.3208 320.455 36.7574 319.402 36.5292 318.254C36.301 317.107 36.4182 315.918 36.8658 314.837C37.3135 313.756 38.0715 312.833 39.0442 312.183C40.0168 311.533 41.1603 311.186 42.3301 311.186C43.1068 311.186 43.8759 311.339 44.5935 311.636C45.3111 311.933 45.9632 312.369 46.5124 312.918C47.0616 313.467 47.4973 314.119 47.7945 314.837C48.0917 315.555 48.2446 316.324 48.2445 317.1Z" fill="#989898"/>
<path d="M172.487 86.5186C172.487 87.6883 172.14 88.8319 171.49 89.8045C170.84 90.7771 169.916 91.5352 168.836 91.9828C167.755 92.4305 166.566 92.5475 165.418 92.3193C164.271 92.0911 163.217 91.5279 162.39 90.7007C161.563 89.8736 161 88.8197 160.772 87.6724C160.543 86.5252 160.66 85.336 161.108 84.2552C161.556 83.1745 162.314 82.2508 163.286 81.6009C164.259 80.951 165.403 80.6041 166.572 80.6041C167.349 80.604 168.118 80.7569 168.836 81.0541C169.553 81.3513 170.205 81.7869 170.755 82.3361C171.304 82.8854 171.74 83.5374 172.037 84.255C172.334 84.9727 172.487 85.7419 172.487 86.5186Z" fill="#989898"/>
<path d="M140.724 133.852C140.724 135.021 140.377 136.165 139.727 137.137C139.077 138.11 138.154 138.868 137.073 139.316C135.992 139.763 134.803 139.881 133.656 139.652C132.508 139.424 131.455 138.861 130.627 138.034C129.8 137.207 129.237 136.153 129.009 135.005C128.781 133.858 128.898 132.669 129.345 131.588C129.793 130.507 130.551 129.584 131.524 128.934C132.496 128.284 133.64 127.937 134.81 127.937C136.378 127.937 137.882 128.56 138.992 129.669C140.101 130.779 140.724 132.283 140.724 133.852Z" fill="#989898"/>
<path d="M6.89327 127.325C5.60691 127.325 4.3495 126.943 3.27993 126.229C2.21036 125.514 1.37673 124.498 0.884465 123.31C0.392196 122.122 0.263308 120.814 0.514265 119.552C0.765222 118.29 1.38473 117.132 2.29432 116.222C3.20392 115.312 4.36275 114.693 5.62439 114.442C6.88604 114.191 8.19383 114.32 9.38228 114.812C10.5707 115.304 11.5865 116.138 12.3011 117.208C13.0158 118.277 13.3973 119.535 13.3973 120.821C13.3951 122.545 12.7091 124.198 11.4899 125.418C10.2706 126.637 8.61756 127.323 6.89327 127.325ZM6.89327 115.497C5.8406 115.497 4.81162 115.809 3.93635 116.394C3.06109 116.979 2.37887 117.81 1.97603 118.783C1.57319 119.755 1.46775 120.825 1.67311 121.858C1.87848 122.89 2.38544 123.838 3.12979 124.583C3.87414 125.327 4.8225 125.834 5.85494 126.04C6.88739 126.245 7.9576 126.139 8.93014 125.737C9.90268 125.334 10.7338 124.652 11.3187 123.776C11.9035 122.901 12.2157 121.872 12.2157 120.819C12.2142 119.408 11.6529 118.055 10.6551 117.057C9.65732 116.06 8.30439 115.498 6.89327 115.497Z" fill="#989898"/>
<path d="M402.27 79.9352C400.984 79.9352 399.726 79.5537 398.657 78.8391C397.587 78.1244 396.753 77.1087 396.261 75.9202C395.769 74.7318 395.64 73.424 395.891 72.1623C396.142 70.9007 396.761 69.7419 397.671 68.8323C398.581 67.9227 399.739 67.3032 401.001 67.0522C402.263 66.8012 403.57 66.9301 404.759 67.4224C405.947 67.9147 406.963 68.7483 407.678 69.8179C408.393 70.8874 408.774 72.1448 408.774 73.4312C408.772 75.1554 408.086 76.8083 406.866 78.0275C405.647 79.2467 403.994 79.9328 402.27 79.9352ZM402.27 68.1071C401.217 68.1071 400.188 68.4193 399.313 69.0042C398.438 69.589 397.756 70.4203 397.353 71.3928C396.95 72.3654 396.845 73.4355 397.05 74.4679C397.255 75.5004 397.762 76.4487 398.507 77.1931C399.251 77.9374 400.199 78.4444 401.232 78.6497C402.264 78.8551 403.334 78.7497 404.307 78.3468C405.279 77.944 406.111 77.2618 406.696 76.3865C407.28 75.5112 407.592 74.4823 407.592 73.4296C407.591 72.0185 407.03 70.6655 406.032 69.6677C405.034 68.6699 403.681 68.1087 402.27 68.1071Z" fill="#989898"/>
<path d="M181.996 288.12C180.71 288.12 179.452 287.739 178.383 287.024C177.313 286.31 176.479 285.294 175.987 284.105C175.495 282.917 175.366 281.609 175.617 280.348C175.868 279.086 176.487 277.927 177.397 277.017C178.307 276.108 179.465 275.488 180.727 275.238C181.989 274.987 183.296 275.115 184.485 275.608C185.673 276.1 186.689 276.934 187.404 278.003C188.118 279.073 188.5 280.33 188.5 281.617C188.497 283.341 187.811 284.994 186.592 286.213C185.373 287.432 183.72 288.118 181.996 288.12ZM181.996 276.292C180.943 276.292 179.914 276.605 179.039 277.189C178.164 277.774 177.481 278.605 177.079 279.578C176.676 280.551 176.57 281.621 176.776 282.653C176.981 283.686 177.488 284.634 178.232 285.378C178.977 286.123 179.925 286.63 180.958 286.835C181.99 287.04 183.06 286.935 184.033 286.532C185.005 286.129 185.836 285.447 186.421 284.572C187.006 283.697 187.318 282.667 187.318 281.615C187.317 280.204 186.756 278.851 185.758 277.853C184.76 276.855 183.407 276.294 181.996 276.292Z" fill="#989898"/>
<path d="M108.615 156.304C107.329 156.304 106.071 155.923 105.002 155.208C103.932 154.493 103.099 153.478 102.606 152.289C102.114 151.101 101.985 149.793 102.236 148.531C102.487 147.27 103.107 146.111 104.016 145.201C104.926 144.292 106.085 143.672 107.346 143.421C108.608 143.17 109.916 143.299 111.104 143.791C112.293 144.284 113.308 145.117 114.023 146.187C114.738 147.256 115.119 148.514 115.119 149.8C115.117 151.525 114.431 153.178 113.212 154.397C111.993 155.616 110.339 156.302 108.615 156.304ZM108.615 144.476C107.563 144.476 106.534 144.788 105.658 145.373C104.783 145.958 104.101 146.789 103.698 147.762C103.295 148.734 103.19 149.804 103.395 150.837C103.6 151.869 104.107 152.818 104.852 153.562C105.596 154.306 106.544 154.813 107.577 155.019C108.609 155.224 109.68 155.119 110.652 154.716C111.625 154.313 112.456 153.631 113.041 152.756C113.625 151.88 113.938 150.851 113.938 149.799C113.936 148.387 113.375 147.035 112.377 146.037C111.379 145.039 110.026 144.478 108.615 144.476Z" fill="#989898"/>
<path d="M275.983 188.983C274.697 188.983 273.439 188.602 272.37 187.887C271.3 187.173 270.466 186.157 269.974 184.968C269.482 183.78 269.353 182.472 269.604 181.211C269.855 179.949 270.474 178.79 271.384 177.881C272.294 176.971 273.452 176.352 274.714 176.101C275.976 175.85 277.284 175.978 278.472 176.471C279.66 176.963 280.676 177.797 281.391 178.866C282.106 179.936 282.487 181.193 282.487 182.48C282.484 184.204 281.799 185.857 280.579 187.076C279.36 188.295 277.707 188.981 275.983 188.983ZM275.983 177.155C274.93 177.155 273.901 177.468 273.026 178.052C272.151 178.637 271.469 179.469 271.066 180.441C270.663 181.414 270.557 182.484 270.763 183.516C270.968 184.549 271.475 185.497 272.22 186.241C272.964 186.986 273.912 187.493 274.945 187.698C275.977 187.903 277.047 187.798 278.02 187.395C278.992 186.992 279.824 186.31 280.408 185.435C280.993 184.56 281.305 183.531 281.305 182.478C281.304 181.067 280.743 179.714 279.745 178.716C278.747 177.718 277.394 177.157 275.983 177.155Z" fill="#989898"/>
<path d="M337.126 317.695H42.3307V316.512H336.636L372.124 281.024H603.665V282.207H372.608L337.126 317.695Z" fill="#989898"/>
<path d="M-212.57 251.225H-463.867V250.042H-213.06L-147.118 184.1H131.923L181.009 233.187H473.511V234.369H180.522L131.435 185.283H-146.629L-212.57 251.225Z" fill="#989898"/>
<path d="M473.514 192.971H309.448L237.887 121.41H12.8069V120.228H238.378L309.938 191.788H473.514V192.971Z" fill="#989898"/>
<path d="M-191.247 318.021H-330.21V316.839H-191.738L-108.086 233.187H180.765V234.369H-107.596L-191.247 318.021Z" fill="#989898"/>
<path d="M372.369 281.024H187.91V282.207H372.369V281.024Z" fill="#989898"/>
<path d="M473.513 163.401H341.385L265.093 87.1096H166.573V85.9272H265.583L341.874 162.219H473.513V163.401Z" fill="#989898"/>
<path d="M473.513 113.723H362.674L279.286 30.3344H104.128L54.8935 79.5686H-105.474V78.3863H54.404L103.639 29.1512H279.776L363.165 112.54H473.513V113.723Z" fill="#989898"/>
<path d="M-245.985 194.154H-364.51V192.969H-246.474L-202.71 149.205H102.701V150.387H-202.221L-245.985 194.154Z" fill="#989898"/>
<path d="M473.513 29.1512H355.823V30.3345H473.513V29.1512Z" fill="#989898"/>
<path d="M270.659 182.478H182.887L134.811 134.401L135.644 133.567L183.375 181.298H270.659V182.478Z" fill="#989898"/>
<path d="M473.513 72.8385H408.184V74.0217H473.513V72.8385Z" fill="#989898"/>
</g>
</g>
</g>
</svg>

<svg width="547" height="323" viewBox="0 0 547 323" fill="none" xmlns="http://www.w3.org/2000/svg"><mask id="a" style="mask-type:luminance" maskUnits="userSpaceOnUse" x="0" y="0" width="547" height="323"><path d="M547 .303H0V323h547V.303z" fill="#fff"/></mask><g opacity=".2" mask="url(#a)"><mask id="b" style="mask-type:luminance" maskUnits="userSpaceOnUse" x="-938" y="-738" width="1542" height="1062"><path d="M603.669-737.796H-937.458V323.017H603.669V-737.796z" fill="#fff"/></mask><g mask="url(#b)" fill="#989898"><path d="M415.555 266.85a5.914 5.914 0 11-11.829 0 5.914 5.914 0 0111.829 0zM108.023 71.162a5.914 5.914 0 11-11.827 0 5.914 5.914 0 0111.827 0zm20.7 80.945a5.914 5.914 0 11-11.829 0 5.914 5.914 0 0111.829 0zM337.806 64.58a6.505 6.505 0 116.504-6.505 6.517 6.517 0 01-6.504 6.504zm0-11.829a5.322 5.322 0 100 10.645 5.322 5.322 0 000-10.645zm76.862-31.858a6.505 6.505 0 116.504-6.504 6.517 6.517 0 01-6.504 6.504zm0-11.828a5.321 5.321 0 00-3.764 9.086 5.322 5.322 0 103.764-9.086zM44.152 140.948a6.501 6.501 0 01-6.38-7.773 6.507 6.507 0 015.111-5.11 6.506 6.506 0 017.773 6.379 6.512 6.512 0 01-6.504 6.504zm0-11.828a5.32 5.32 0 00-5.22 6.361 5.322 5.322 0 105.22-6.361zm220.003 77.397a6.507 6.507 0 01-6.009-4.015 6.507 6.507 0 011.41-7.088 6.505 6.505 0 0111.103 4.599 6.51 6.51 0 01-6.504 6.504zm0-11.828a5.32 5.32 0 00-5.22 6.36 5.318 5.318 0 004.182 4.182 5.324 5.324 0 006.361-5.22 5.33 5.33 0 00-5.323-5.322zm150.809-41.368a6.51 6.51 0 01-6.379-7.773 6.501 6.501 0 015.11-5.11 6.507 6.507 0 017.773 6.379 6.516 6.516 0 01-6.504 6.504zm0-11.828a5.32 5.32 0 00-4.918 3.285 5.335 5.335 0 00-.303 3.076 5.321 5.321 0 009.646 1.918 5.32 5.32 0 00-.664-6.719 5.326 5.326 0 00-3.761-1.56zm0 42.628a6.503 6.503 0 01-4.599-11.103 6.505 6.505 0 0111.103 4.599 6.516 6.516 0 01-6.504 6.504zm0-11.828a5.32 5.32 0 00-4.918 3.286 5.331 5.331 0 00-.303 3.075 5.33 5.33 0 004.182 4.182 5.323 5.323 0 006.361-5.22 5.327 5.327 0 00-5.322-5.323z"/><path d="M142.507 302.338h-294.796l294.306-1.182 35.488-35.488h231.543v1.183H177.991l-35.484 35.487zm-419.54-66.469h-251.296v-1.183h250.807l65.941-65.942H67.46l49.087 49.087h292.501v1.182h-292.99l-49.086-49.086h-278.063l-65.942 65.942zm686.084-58.253H244.984l-71.56-71.561h-225.08v-1.182h225.57l71.561 71.56h163.576v1.183z"/><path d="M-255.711 302.666h-138.962v-1.182h138.472l83.652-83.652h288.851v1.182h-288.361l-83.652 83.652zm433.461-36.999H-6.71v1.183h184.46v-1.183zm231.299-117.622H276.921L200.63 71.754h-98.52V70.57h99.009l76.292 76.292h131.638v1.182z"/><path d="M409.049 98.367H298.211l-83.388-83.389H39.665L-9.57 64.212h-160.368v-1.18H-10.06l49.235-49.235h176.137L298.7 97.185h110.348l.001 1.181zm-719.497 80.431h-118.526v-1.182h118.036l43.764-43.765H38.237v1.183h-304.921l-43.764 43.764zM409.049 13.796h-117.69v1.183h117.69v-1.183zm-150.81 186.806h-87.772l-48.077-48.077.833-.834 47.731 47.731h87.285v1.18zm150.81-143.12H343.72v1.183h65.329v-1.183zM48.245 317.1a5.913 5.913 0 01-7.069 5.801 5.913 5.913 0 011.154-11.715 5.919 5.919 0 015.465 3.651 5.92 5.92 0 01.45 2.263z"/><path d="M172.487 86.519a5.914 5.914 0 11-11.828 0 5.914 5.914 0 0111.828 0zm-31.763 47.333a5.911 5.911 0 01-3.651 5.464 5.913 5.913 0 01-8.064-4.311 5.914 5.914 0 1111.715-1.153zM6.893 127.325a6.509 6.509 0 01-6.009-4.015 6.504 6.504 0 1112.513-2.489 6.515 6.515 0 01-6.504 6.504zm0-11.828a5.32 5.32 0 00-3.763 9.086 5.33 5.33 0 002.725 1.457 5.32 5.32 0 004.8-8.983 5.329 5.329 0 00-3.762-1.56zM402.27 79.935a6.503 6.503 0 01-4.599-11.103 6.504 6.504 0 0111.103 4.6 6.512 6.512 0 01-6.504 6.504zm0-11.828a5.32 5.32 0 00-3.763 9.086 5.318 5.318 0 005.8 1.154 5.327 5.327 0 002.389-1.96 5.325 5.325 0 00-4.426-8.28zM181.996 288.12a6.5 6.5 0 01-6.009-4.015 6.503 6.503 0 1112.513-2.488 6.516 6.516 0 01-6.504 6.503zm0-11.828a5.328 5.328 0 00-4.917 3.286 5.316 5.316 0 001.153 5.8 5.318 5.318 0 005.801 1.154 5.327 5.327 0 003.285-4.917 5.326 5.326 0 00-5.322-5.323zm-73.381-119.988a6.5 6.5 0 01-6.009-4.015 6.506 6.506 0 018.498-8.498 6.506 6.506 0 014.015 6.009 6.511 6.511 0 01-6.504 6.504zm0-11.828a5.325 5.325 0 00-5.22 6.361 5.326 5.326 0 007.257 3.879 5.324 5.324 0 003.286-4.917 5.329 5.329 0 00-5.323-5.323zm167.368 44.507a6.5 6.5 0 01-6.009-4.015 6.503 6.503 0 1112.513-2.488 6.512 6.512 0 01-6.504 6.503zm0-11.828a5.328 5.328 0 00-4.917 3.286 5.316 5.316 0 001.154 5.8 5.324 5.324 0 009.085-3.763 5.326 5.326 0 00-5.322-5.323zm61.143 140.54H42.331v-1.183h294.305l35.488-35.488h231.541v1.183H372.608l-35.482 35.488zm-549.696-66.47h-251.297v-1.183h250.807l65.942-65.942h279.041l49.086 49.087h292.502v1.182H180.522l-49.087-49.086h-278.064l-65.941 65.942z"/><path d="M473.514 192.971H309.448l-71.561-71.561H12.807v-1.182h225.571l71.56 71.56h163.576v1.183zm-664.761 125.05H-330.21v-1.182h138.472l83.652-83.652h288.851v1.182h-288.361l-83.651 83.652zm563.616-36.997H187.91v1.183h184.459v-1.183z"/><path d="M473.513 163.401H341.385L265.093 87.11h-98.52v-1.183h99.01l76.291 76.292h131.639v1.182z"/><path d="M473.513 113.723H362.674l-83.388-83.389H104.128L54.894 79.57h-160.368v-1.183H54.404l49.235-49.235h176.137l83.389 83.389h110.348v1.183zm-719.498 80.431H-364.51v-1.185h118.036l43.764-43.764h305.411v1.182h-304.922l-43.764 43.767zM473.513 29.151h-117.69v1.183h117.69v-1.183zM270.659 182.478h-87.772l-48.076-48.077.833-.834 47.731 47.731h87.284v1.18zm202.854-109.64h-65.329v1.184h65.329v-1.184z"/></g></g></svg>
